X:3106
T:Nobody knows the trouble I've seen
C:anon.
O:USA
R:Negro spiritual
Z:Transcribed by Frank Nordberg - http://www.musicaviva.com
F:http://abc.musicaviva.com/tunes/usa/nobody-knows.abc
M:C
L:1/8
Q:1/4=72
K:F
"F"AC2D "Bb"F3G|"F"AAAA-A2 z2|"F"AC2D "Bb"F2F2|"C7"DC3-C2 z2|
w:No-bo-dy knows the troub-le I see._ No-bo-dy knows my sor-row._
"F"AC2D "Bb"F3G|"F"AAAA-A2 z2|"F"c3A "C7"G2A2|"Bb"F4 "F"F2||F2|
w:No-bo-dy knows the troub-le I see._ Glor-y, hal-le-lu-yah. Some-
"F"c2c2c2A2|"F"c2c2A2 z2|"F"c4A4|"C7"G4 z2 A2|
w:times I'm up, some-times I'm down. Oh, yes, Lord, some-
"F"c2c2c2A2|"F"c2c2A2 z2|"F"A4 "C7"G4|"F"F6 z2|]
w:times I'm al-most to the ground. Oh, yes, Lord.
W:
W:Nobody knows the troube I see.
W:Nobody knows my sorrow.
W:Nobody knows the troub-e I see.
W:Glory, halleluyah.
W:  Sometimes I'm up, sometimes I'm down.
W:  Oh, yes, Lord,
W:  sometimes I'm almost to the ground.
W:  Oh, yes, Lord.
W:
W:
W:  From Musica Viva - http://www.musicaviva.com
W:  the Internet center for free sheet music downloads.


